application/views/svg/quote-icon.svg

<svg viewBox="0 0 29 26" fill="none" xmlns="http://www.w3.org/2000/svg">
<path d="M11.3673 25.6799H0.0072727V13.44C-0.0460605 11.68 0.193939 10.0266 0.727271 8.47998C1.31394 6.93332 2.11394 5.57332 3.12727 4.39999C4.1406 3.22666 5.3406 2.26666 6.72726 1.52C8.16726 0.719998 9.71392 0.213333 11.3673 0V5.27999C9.34059 5.97332 7.95393 7.01331 7.20726 8.39998C6.4606 9.73331 6.08726 11.3866 6.08726 13.36H11.3673V25.6799ZM28.4072 25.6799H17.0472V13.44C16.9939 11.68 17.2339 10.0266 17.7672 8.47998C18.3539 6.93332 19.1539 5.57332 20.1672 4.39999C21.1806 3.22666 22.3806 2.26666 23.7672 1.52C25.2072 0.719998 26.7539 0.213333 28.4072 0V5.27999C26.3806 5.97332 24.9939 7.01331 24.2472 8.39998C23.5006 9.73331 23.1272 11.3866 23.1272 13.36H28.4072V25.6799Z" fill="#1B1B1B"/>
</svg>

<svg viewBox="0 0 29 26" fill="none" xmlns="http://www.w3.org/2000/svg"><path d="M11.367 25.68H.007V13.44c-.053-1.76.187-3.413.72-4.96.587-1.547 1.387-2.907 2.4-4.08a12.615 12.615 0 013.6-2.88C8.167.72 9.714.213 11.367 0v5.28c-2.026.693-3.413 1.733-4.16 3.12-.746 1.333-1.12 2.987-1.12 4.96h5.28v12.32zm17.04 0h-11.36V13.44c-.053-1.76.187-3.413.72-4.96.587-1.547 1.387-2.907 2.4-4.08a12.616 12.616 0 013.6-2.88c1.44-.8 2.987-1.307 4.64-1.52v5.28c-2.026.693-3.413 1.733-4.16 3.12-.746 1.333-1.12 2.987-1.12 4.96h5.28v12.32z" fill="#1B1B1B"/></svg>
